public/images/berlin-logo.svg

<svg xmlns="http://www.w3.org/2000/svg" width="66" height="22" viewBox="0 0 66 22">
  <g fill="none" fill-rule="evenodd">
    <path fill="#000" fill-rule="nonzero" d="M0,0 L0,21.9997413 L66,21.9997413 L66,0 L0,0 Z M44.0002587,21.5604605 L0.440056915,21.5604605 L0.440056915,0.440056915 L44.0002587,0.440056915 L44.0002587,21.5604605 Z M65.5599431,21.5604605 L44.4403156,21.5604605 L44.4403156,0.440056915 L65.5599431,0.440056915 L65.5599431,21.5604605 Z"/>
    <path fill="#E40422" fill-rule="nonzero" d="M37.5772097,8.14526207 L37.5772097,12.6803439 C37.5772097,12.739175 37.5348762,12.7580591 37.502734,12.6999543 L34.7118577,8.10676762 C34.6773181,8.05769432 34.6183011,8.02816845 34.5550669,8.0283261 L33.3556172,8.0283261 C33.3216832,8.02709905 33.2887264,8.03899974 33.2646389,8.06117834 C33.2405514,8.08335693 33.2275024,8.11381618 33.2286167,8.14526207 L33.2286167,14.7663072 C33.2272788,14.7978769 33.2402291,14.8285303 33.2643424,14.8508706 C33.2884558,14.8732109 33.321542,14.885209 33.3556172,14.8839695 L34.3920045,14.8839695 C34.4260796,14.885209 34.4591659,14.8732109 34.4832792,14.8508706 C34.5073926,14.8285303 34.5203429,14.7978769 34.519005,14.7663072 L34.519005,10.2413937 C34.519005,10.1825626 34.5613385,10.1629522 34.5934806,10.2217834 L37.3867088,14.805528 C37.4212484,14.8546013 37.4802655,14.8841272 37.5434996,14.8839695 L38.7413814,14.8839695 C38.7753898,14.88499 38.8083368,14.8729215 38.8323969,14.8506304 C38.8564571,14.8283394 38.8694834,14.797815 38.868382,14.7663072 L38.868382,8.14526207 C38.8694834,8.11375433 38.8564571,8.08322988 38.8323969,8.06093886 C38.8083368,8.03864784 38.7753898,8.02657931 38.7413814,8.02759979 L37.7042102,8.02759979 C37.670135,8.02636032 37.6370488,8.03835834 37.6129354,8.06069866 C37.5888221,8.08303898 37.5758718,8.11369241 37.5772097,8.14526207 M30.1014241,14.8839695 L31.1487866,14.8839695 C31.1828618,14.885209 31.2159481,14.8732109 31.2400614,14.8508706 C31.2641748,14.8285303 31.277125,14.7978769 31.2757872,14.7663072 L31.2757872,8.14526207 C31.277125,8.11369241 31.2641748,8.08303898 31.2400614,8.06069866 C31.2159481,8.03835834 31.1828618,8.02636032 31.1487866,8.02759979 L30.1014241,8.02759979 C30.0674157,8.02657931 30.0344687,8.03864784 30.0104085,8.06093886 C29.9863484,8.08322988 29.973322,8.11375433 29.9744235,8.14526207 L29.9744235,14.7663072 C29.973322,14.797815 29.9863484,14.8283394 30.0104085,14.8506304 C30.0344687,14.8729215 30.0674157,14.88499 30.1014241,14.8839695 M25.924517,13.689189 L25.924517,8.14526207 C25.9256185,8.11375433 25.9125921,8.08322988 25.888532,8.06093886 C25.8644718,8.03864784 25.8315248,8.02657931 25.7975164,8.02759979 L24.7501539,8.02759979 C24.7160787,8.02636032 24.6829924,8.03835834 24.6588791,8.06069866 C24.6347657,8.08303898 24.6218155,8.11369241 24.6231533,8.14526207 L24.6231533,14.7663072 C24.6218155,14.7978769 24.6347657,14.8285303 24.6588791,14.8508706 C24.6829924,14.8732109 24.7160787,14.885209 24.7501539,14.8839695 L28.3563424,14.8839695 C28.3904176,14.885209 28.4235038,14.8732109 28.4476172,14.8508706 C28.4717305,14.8285303 28.4846808,14.7978769 28.4833429,14.7663072 L28.4833429,13.8656824 C28.4846808,13.8341127 28.4717305,13.8034593 28.4476172,13.781119 C28.4235038,13.7587787 28.3904176,13.7467806 28.3563424,13.7480201 L25.9880173,13.7480201 C25.9710547,13.7488504 25.9544995,13.7430211 25.9424141,13.7319626 C25.9303287,13.720904 25.9238315,13.7056397 25.924517,13.6899153 M19.0805983,9.16209656 L20.0440778,9.16209656 C20.9009396,9.16209656 21.5884673,9.58335656 21.5884673,10.454929 C21.5884673,11.3265014 20.9009396,11.7477812 20.0331025,11.7477812 L19.0805983,11.7477812 C19.0636945,11.7481749 19.0473606,11.7420849 19.0354782,11.7309385 C19.0235957,11.7197922 19.0172257,11.7045848 19.017882,11.6889303 L19.017882,9.21947508 C19.0155127,9.20349191 19.0213537,9.18740252 19.033667,9.17599463 C19.0459803,9.16458673 19.0633466,9.15917517 19.0805983,9.16137025 M21.5359423,14.8810643 L22.8686642,14.8810643 C22.974498,14.8810643 23.0066401,14.8120648 22.9431398,14.7358022 L21.3556329,12.7478908 C21.3433696,12.7343743 21.33861,12.7163333 21.3427606,12.6990999 C21.3469113,12.6818665 21.3594976,12.6674115 21.3767997,12.6600072 C22.3175445,12.3070204 22.9447077,11.5334999 22.9447077,10.4563816 C22.9447077,8.93112987 21.695869,8.0268128 20.109146,8.0268128 L17.8427349,8.0268128 C17.8085855,8.02584158 17.7755098,8.03800776 17.7514241,8.06046018 C17.7273384,8.08291261 17.7144104,8.11363057 17.7157343,8.14526207 L17.7157343,14.7663072 C17.7146329,14.797815 17.7276592,14.8283394 17.7517194,14.8506304 C17.7757795,14.8729215 17.8087265,14.88499 17.8427349,14.8839695 L18.8908814,14.8839695 C18.9248898,14.88499 18.9578368,14.8729215 18.981897,14.8506304 C19.0059571,14.8283394 19.0189835,14.797815 19.017882,14.7663072 L19.017882,12.9454472 C19.0169858,12.9297319 19.0232777,12.914394 19.035214,12.9031972 C19.0471502,12.8920004 19.0636259,12.885981 19.0805983,12.886616 L19.8849351,12.886616 C19.917471,12.8893793 19.9476946,12.9033799 19.9696022,12.9258368 L21.3846392,14.8062543 C21.4151577,14.8552324 21.4717671,14.885202 21.5328065,14.8847021 M15.7895593,9.04733953 L15.7895593,8.14526207 C15.7906608,8.11375433 15.7776344,8.08322988 15.7535743,8.06093886 C15.7295141,8.03864784 15.6965671,8.02657931 15.6625587,8.02753995 L11.8141284,8.02753995 C11.7801201,8.02657931 11.747173,8.03864784 11.7231129,8.06093886 C11.6990527,8.08322988 11.6860264,8.11375433 11.6871279,8.14526207 L11.6871279,14.7663072 C11.6860264,14.797815 11.6990527,14.8283394 11.7231129,14.8506304 C11.747173,14.8729215 11.7801201,14.88499 11.8141284,14.8840293 L15.6656946,14.8840293 C15.6997029,14.88499 15.7326499,14.8729215 15.7567101,14.8506304 C15.7807702,14.8283394 15.7937966,14.797815 15.7926951,14.7663072 L15.7926951,13.8656824 C15.7937966,13.8341746 15.7807702,13.8036502 15.7567101,13.7813592 C15.7326499,13.7590682 15.6997029,13.7469996 15.6656946,13.7480201 L13.0418004,13.7480201 C13.0248379,13.7488504 13.0082827,13.7430211 12.9961973,13.7319626 C12.9841118,13.720904 12.9776147,13.7056397 12.9783002,13.6899153 L12.9783002,12.044096 C12.9776312,12.0283112 12.9841064,12.0129845 12.996163,12.0018143 C13.0082197,11.9906442 13.0247628,11.9846452 13.0418004,11.9852649 L15.6656946,11.9852649 C15.6997697,11.9865044 15.732856,11.9745063 15.7569694,11.952166 C15.7810827,11.9298257 15.794033,11.8991723 15.7926951,11.8676026 L15.7926951,10.9778724 C15.7937966,10.9463647 15.7807702,10.9158402 15.7567101,10.8935492 C15.7326499,10.8712582 15.6997029,10.8591897 15.6656946,10.8602102 L13.0418004,10.8602102 C13.0244241,10.8626598 13.0068197,10.8573616 12.9943144,10.8459188 C12.981809,10.834476 12.9758721,10.8182332 12.9783002,10.8021053 L12.9783002,9.22310663 C12.9776147,9.20738222 12.9841118,9.19211793 12.9961973,9.18105936 C13.0082827,9.17000079 13.0248379,9.16417146 13.0418004,9.1650018 L15.6656946,9.1650018 C15.6997029,9.16602228 15.7326499,9.15395376 15.7567101,9.13166274 C15.7807702,9.10937172 15.7937966,9.07884727 15.7926951,9.04733953 M7.54393082,13.7480201 L6.42209261,13.7480201 C6.40513005,13.7488504 6.38857488,13.7430211 6.37648944,13.7319626 C6.364404,13.720904 6.35790687,13.7056397 6.35859233,13.6899153 L6.35859233,12.044096 C6.35623113,12.0279207 6.36215754,12.0116516 6.37461538,12.0001098 C6.38707322,11.988568 6.40463351,11.9830773 6.42209261,11.9852649 L7.54393082,11.9852649 C8.23145851,11.9852649 8.61246017,12.3484201 8.61246017,12.8670057 C8.61246017,13.3855912 8.23145851,13.7480201 7.54393082,13.7480201 M7.43809703,9.16209656 C8.10445795,9.16209656 8.47448426,9.4947467 8.47448426,10.0038903 C8.47448426,10.5130338 8.10445795,10.8558523 7.43809703,10.8558523 L6.41895679,10.8558523 C6.40158042,10.8583019 6.38397608,10.8530038 6.37147075,10.841561 C6.35896541,10.8301182 6.35302851,10.8138754 6.35545652,10.7977475 L6.35545652,9.22310663 C6.35302851,9.20697874 6.35896541,9.19073591 6.37147075,9.17929312 C6.38397608,9.16785033 6.40158042,9.16255216 6.41895679,9.1650018 L7.43809703,9.16209656 Z M8.98248647,11.3163331 C9.5220244,11.0110739 9.84477951,10.4623111 9.82915682,9.87678595 C9.82915682,8.82872011 9.04520279,8.02535622 7.6074311,8.02535622 L5.1944206,8.02535622 C5.16004999,8.02434554 5.12677905,8.0367272 5.10276169,8.05953141 C5.07874433,8.08233562 5.06620036,8.11345469 5.068204,8.14526207 L5.068204,14.7663072 C5.06687957,14.7977461 5.07972475,14.8282796 5.10366356,14.850596 C5.12760236,14.8729123 5.16047901,14.8850019 5.1944206,14.8840306 L7.70307349,14.8840306 C9.18474661,14.8840306 9.96713273,14.0508915 9.96713273,12.9541629 C9.96713273,12.2394735 9.59710643,11.7005512 8.98327042,11.3969535 C8.9409369,11.3679011 8.9409369,11.3381224 8.98327042,11.318512"/>
    <path fill="#000" fill-rule="nonzero" d="M57.956413,17.4923203 C57.956413,17.4923203 57.5788438,15.0210723 57.3995938,13.9790432 L57.4758704,13.9632549 C57.5489215,13.9477296 57.6100137,13.8986658 57.6401963,13.8312828 C57.6703789,13.7638998 57.6660021,13.686346 57.6284236,13.6226782 C57.2043256,12.89416 57.0510097,11.9919703 57.0510097,11.0897806 C57.0519029,10.5522882 57.1436751,10.0187009 57.3225544,9.51094859 C57.3324703,9.48237925 57.3423863,9.45456174 57.353065,9.42599239 L57.3744225,9.36509459 C57.5733844,8.92540786 57.7020377,8.45799394 57.7558055,7.97948155 C57.812688,7.33019887 57.7052328,6.67714978 57.4430714,6.07886854 C57.4316299,6.05856927 57.4201884,6.03827 57.4079842,6.01872256 C57.566669,5.85654155 57.593669,5.60898185 57.4735821,5.41726274 C57.3339959,5.17968612 57.0471958,5.0849562 56.8328586,5.20675181 C56.8107383,5.21953283 56.756582,5.25637225 56.733699,5.27366421 C56.6947979,5.24509487 56.6719149,5.2308102 56.6719149,5.2308102 C56.6719149,5.2308102 56.6116564,5.19171532 56.5597883,5.16540145 C56.5597883,5.16540145 56.5399564,5.15562773 56.5399564,5.1548759 C56.3148687,5.0568917 56.0713035,5.00693019 55.8252446,5.00824382 C55.7022478,5.00824382 55.5795685,5.02057463 55.4591169,5.04510949 C55.2079731,5.09671367 54.9711631,5.20136483 54.7649997,5.35185399 C54.6935043,5.37341726 54.6198489,5.38728162 54.5453231,5.39320435 L54.255472,5.4067372 C54.1189368,5.41199997 53.9633326,5.4067372 53.9633326,5.4067372 C53.895675,5.40631413 53.8402533,5.45960033 53.8390017,5.52627734 C53.8390017,5.53229193 53.8840049,5.92474446 53.8840049,5.92624811 C53.8893615,6.02394811 53.9396293,6.11390713 54.02054,6.17059116 L54.030456,6.17735758 C54.050247,6.1878406 54.0662408,6.20413046 54.0762219,6.22397072 C54.103584,6.30117961 54.1521745,6.36937569 54.2165709,6.42094881 C54.2364028,6.432978 54.2676762,6.4269634 54.2730156,6.40516049 C54.3286975,6.19089043 54.4583678,6.42170063 54.7047412,6.2901313 C54.7680508,6.25629918 54.8016125,6.40816779 54.7749157,6.47432837 L54.7520327,6.53146705 C54.7010932,6.65925498 54.5847208,6.75044392 54.4469263,6.77054732 C54.3378507,6.78633564 54.2753039,6.79686119 54.2768294,6.81189768 C54.2897964,6.93294147 54.2768294,7.03744511 54.4003975,7.11262759 C54.417629,7.12213118 54.4357688,7.12993776 54.4545539,7.13593416 C54.6460082,7.18555459 55.2051157,7.39681735 54.4942178,8.22307277 C54.4519401,8.27113058 54.4122228,8.3213198 54.3752262,8.37343772 C54.3600744,8.39443679 54.3470452,8.41684786 54.3363252,8.44035013 L54.3210699,8.46967129 L52.1853248,7.68251076 C52.1114935,7.64853696 52.0474986,7.59683455 51.9992099,7.53214581 L51.7886865,7.17578087 C51.6888609,7.01294887 51.5103138,6.91299567 51.317297,6.91189038 C51.2182897,6.90423066 51.1188256,6.90423066 51.0198183,6.91189038 C50.9565087,6.91189038 50.9198959,6.92993417 50.9061661,6.96677359 C50.8887775,7.05738865 50.9053085,7.15114472 50.9526948,7.23066408 L51.1357587,7.5622188 C51.1517768,7.58552537 51.3828949,8.09526256 51.3828949,8.09526256 C51.4062642,8.15794328 51.445993,8.21343994 51.4980726,8.25615306 L53.6887368,9.88686098 L51.3783183,11.0228682 C51.3117139,11.0584481 51.2334402,11.0662986 51.16093,11.0446711 L50.9542204,10.9830215 C50.5728373,10.8168682 50.2913766,10.9326492 50.1243309,11.0702332 L50.0594958,11.131131 C50.0314841,11.1559726 50.018347,11.1932332 50.0246922,11.2298432 C50.0310374,11.2664532 50.0559793,11.2973019 50.0907692,11.3115689 C50.0907692,11.3115689 50.4553714,11.5228317 50.5362246,11.576963 L51.1037225,11.9085178 C51.1920043,11.9588513 51.2959779,11.9754411 51.3958619,11.9551309 L53.639157,11.5092988 C53.674897,12.0338234 53.7653813,12.5533215 53.9091762,13.0595615 C53.315809,13.6332907 52.9162877,14.3733542 52.765027,15.1789555 C52.6567143,15.7759044 52.6887504,16.3164664 52.8573217,16.9525101 C52.5438249,16.9698021 52.2417695,17.0149116 51.9908195,17.1870794 C51.7398694,17.3592473 51.7024939,17.6426853 51.7009684,17.7885393 L53.4553304,17.7922984 L53.603307,17.7922984 C53.7118408,17.7864495 53.8042163,17.7123951 53.8321368,17.6088531 C53.8477874,17.5501427 53.8587539,17.4903154 53.8649357,17.4299188 C53.9203958,16.9681224 54.0596555,16.5199194 54.2760667,16.1067073 C54.4643113,15.760226 54.6990673,15.4403281 54.9739976,15.1556489 C55.5084849,15.881636 56.182271,16.4972252 56.9571894,16.9675466 C56.7036756,16.9845374 56.4559698,17.0501726 56.2279851,17.1607656 C56.0017869,17.2949855 55.8638793,17.5365744 55.8649084,17.7968099 L57.6795289,17.7968099 C57.7997878,17.7970578 57.9068464,17.7217707 57.9457343,17.609605 C57.949496,17.5982712 57.9525527,17.5867217 57.9548875,17.575021 C57.9548875,17.566751 57.9548875,17.5577291 57.9548875,17.549459 C57.9577421,17.530544 57.9582543,17.5113571 57.956413,17.4923203 Z"/>
  </g>
</svg>

<svg xmlns="http://www.w3.org/2000/svg" width="66" height="22"><g fill="none" fill-rule="nonzero"><path fill="#000" d="M0 0v22h66V0H0Zm44 21.56H.44V.44H44v21.12Zm21.56 0H44.44V.44h21.12v21.12Z"/><path fill="#E40422" d="M37.577 8.145v4.535c0 .06-.042.078-.074.02l-2.791-4.593a.19.19 0 0 0-.157-.079h-1.2a.128.128 0 0 0-.09.033.109.109 0 0 0-.036.084v6.621a.109.109 0 0 0 .035.085.128.128 0 0 0 .092.033h1.036a.128.128 0 0 0 .091-.033.109.109 0 0 0 .036-.085v-4.525c0-.058.042-.078.074-.02l2.794 4.585a.19.19 0 0 0 .156.078h1.198a.128.128 0 0 0 .091-.033.11.11 0 0 0 .036-.085v-6.62a.11.11 0 0 0-.036-.085.128.128 0 0 0-.09-.033h-1.038a.128.128 0 0 0-.091.033.109.109 0 0 0-.036.084m-7.476 6.739h1.048a.128.128 0 0 0 .091-.033.109.109 0 0 0 .036-.085v-6.62a.109.109 0 0 0-.036-.085.128.128 0 0 0-.091-.033H30.1a.128.128 0 0 0-.09.033.11.11 0 0 0-.037.084v6.621a.11.11 0 0 0 .036.085.128.128 0 0 0 .091.033m-4.176-1.195V8.145a.11.11 0 0 0-.036-.084.128.128 0 0 0-.091-.033H24.75a.128.128 0 0 0-.091.033.109.109 0 0 0-.036.084v6.621a.109.109 0 0 0 .036.085.128.128 0 0 0 .091.033h3.606a.128.128 0 0 0 .092-.033.109.109 0 0 0 .035-.085v-.9a.109.109 0 0 0-.035-.085.128.128 0 0 0-.092-.033h-2.368a.063.063 0 0 1-.046-.016.054.054 0 0 1-.017-.042M19.08 9.162h.963c.857 0 1.544.421 1.544 1.293 0 .872-.687 1.293-1.555 1.293h-.952a.064.064 0 0 1-.046-.017.054.054 0 0 1-.017-.042v-2.47a.05.05 0 0 1 .016-.043.058.058 0 0 1 .047-.015m2.455 5.72h1.333c.105 0 .138-.069.074-.145l-1.587-1.988a.054.054 0 0 1-.013-.049.058.058 0 0 1 .034-.039c.94-.353 1.568-1.127 1.568-2.204 0-1.525-1.25-2.43-2.836-2.43h-2.266a.129.129 0 0 0-.092.034.11.11 0 0 0-.035.085v6.621a.11.11 0 0 0 .036.085.128.128 0 0 0 .09.033h1.049a.128.128 0 0 0 .09-.033.11.11 0 0 0 .037-.085v-1.82c-.001-.016.005-.032.017-.043a.063.063 0 0 1 .046-.016h.804a.134.134 0 0 1 .085.039l1.415 1.88c.03.05.087.08.148.079M15.79 9.047v-.902a.11.11 0 0 0-.036-.084.129.129 0 0 0-.091-.033h-3.849a.129.129 0 0 0-.09.033.11.11 0 0 0-.037.084v6.621a.11.11 0 0 0 .036.085.129.129 0 0 0 .091.033h3.852a.129.129 0 0 0 .09-.033.11.11 0 0 0 .037-.085v-.9a.11.11 0 0 0-.036-.085.128.128 0 0 0-.091-.033h-2.624a.063.063 0 0 1-.046-.016.054.054 0 0 1-.018-.042v-1.646c0-.016.006-.031.018-.042a.064.064 0 0 1 .046-.017h2.624a.128.128 0 0 0 .091-.033.109.109 0 0 0 .036-.084v-.89a.11.11 0 0 0-.036-.084.128.128 0 0 0-.091-.034h-2.624a.058.058 0 0 1-.048-.014.05.05 0 0 1-.016-.044V9.223c0-.016.006-.03.018-.042a.063.063 0 0 1 .046-.016h2.624a.128.128 0 0 0 .09-.033.11.11 0 0 0 .037-.085m-8.25 4.701h-1.12a.063.063 0 0 1-.047-.016.054.054 0 0 1-.017-.042v-1.646A.05.05 0 0 1 6.375 12a.06.06 0 0 1 .047-.015h1.122c.687 0 1.068.363 1.068.882s-.38.881-1.068.881m-.106-4.586c.666 0 1.036.333 1.036.842 0 .509-.37.852-1.036.852H6.42a.058.058 0 0 1-.048-.014.05.05 0 0 1-.016-.044V9.223a.05.05 0 0 1 .016-.044.058.058 0 0 1 .048-.014l1.02-.003Zm1.544 2.154c.54-.305.863-.854.847-1.44 0-1.047-.784-1.85-2.222-1.85H5.194a.128.128 0 0 0-.091.034.109.109 0 0 0-.035.085v6.621a.109.109 0 0 0 .036.085.128.128 0 0 0 .09.033h2.51c1.48 0 2.263-.833 2.263-1.93 0-.715-.37-1.253-.984-1.557-.042-.03-.042-.059 0-.078"/><path fill="#000" d="M57.956 17.492s-.377-2.47-.556-3.513l.076-.016a.233.233 0 0 0 .164-.132.227.227 0 0 0-.012-.208c-.424-.729-.577-1.631-.577-2.533a4.775 4.775 0 0 1 .302-1.664l.021-.06c.2-.44.328-.908.382-1.387a3.888 3.888 0 0 0-.313-1.9l-.035-.06a.488.488 0 0 0 .066-.602c-.14-.237-.427-.332-.641-.21a1.44 1.44 0 0 0-.1.067c-.038-.029-.061-.043-.061-.043s-.06-.04-.112-.066l-.02-.01a1.834 1.834 0 0 0-1.08-.11 1.788 1.788 0 0 0-.695.307 1.048 1.048 0 0 1-.22.041l-.29.014c-.136.005-.292 0-.292 0a.123.123 0 0 0-.124.12l.045.4a.32.32 0 0 0 .137.244l.01.006c.02.01.035.027.045.047a.441.441 0 0 0 .14.197c.02.012.052.006.057-.016.056-.214.185.017.432-.115.063-.034.097.118.07.184l-.023.057a.388.388 0 0 1-.305.24c-.11.015-.172.026-.17.04.013.122 0 .226.123.302.018.01.036.017.055.023.191.05.75.26.04 1.087a1.841 1.841 0 0 0-.12.15.393.393 0 0 0-.039.067l-.015.03-2.136-.787a.485.485 0 0 1-.186-.15l-.21-.357a.556.556 0 0 0-.472-.264 1.928 1.928 0 0 0-.297 0c-.063 0-.1.018-.114.055-.017.09 0 .184.047.264l.183.331c.016.024.247.533.247.533a.38.38 0 0 0 .115.161l2.19 1.63-2.31 1.137a.287.287 0 0 1-.217.022l-.207-.062c-.381-.166-.663-.05-.83.087l-.065.061a.107.107 0 0 0 .032.18s.364.212.445.266l.568.332a.42.42 0 0 0 .292.046l2.243-.446c.036.525.126 1.044.27 1.55a3.967 3.967 0 0 0-1.144 2.12c-.108.597-.076 1.137.092 1.774-.313.017-.615.062-.866.234-.251.172-.289.456-.29.602l1.754.003h.148a.25.25 0 0 0 .23-.183c.015-.059.026-.119.032-.18.055-.46.195-.91.411-1.322.188-.347.423-.667.698-.951a6.92 6.92 0 0 0 1.983 1.812 1.973 1.973 0 0 0-.729.193.737.737 0 0 0-.363.636h1.815a.28.28 0 0 0 .275-.222v-.026a.233.233 0 0 0 .001-.057Z"/></g></svg>
